src/pos-icons/map-marker-remove.svg

<svg height="24" viewBox="0 0 24 24" width="24" xmlns="http://www.w3.org/2000/svg"><path d="m9 2c-3.86 0-7 3.14-7 7 0 5.25 7 13 7 13s7-7.75 7-13a7 7 0 0 0 -7-7m0 4.5a2.5 2.5 0 0 1 2.5 2.5 2.5 2.5 0 0 1 -2.5 2.5 2.5 2.5 0 0 1 -2.5-2.5 2.5 2.5 0 0 1 2.5-2.5m7.58 7.66-1.41 1.42 2.41 2.42-2.41 2.41 1.41 1.41 2.42-2.41 2.41 2.41 1.42-1.41-2.42-2.41 2.42-2.42-1.42-1.42-2.41 2.42"/></svg>

<?xml version="1.0" encoding="UTF-8"?><!DOCTYPE svg PUBLIC "-//W3C//DTD SVG 1.1//EN" "http://www.w3.org/Graphics/SVG/1.1/DTD/svg11.dtd"><svg xmlns="http://www.w3.org/2000/svg" xmlns:xlink="http://www.w3.org/1999/xlink" version="1.1" id="mdi-map-marker-remove" width="24" height="24" viewBox="0 0 24 24"><path d="M9,2C5.14,2 2,5.14 2,9C2,14.25 9,22 9,22C9,22 16,14.25 16,9A7,7 0 0,0 9,2M9,6.5A2.5,2.5 0 0,1 11.5,9A2.5,2.5 0 0,1 9,11.5A2.5,2.5 0 0,1 6.5,9A2.5,2.5 0 0,1 9,6.5M16.58,14.16L15.17,15.58L17.58,18L15.17,20.41L16.58,21.82L19,19.41L21.41,21.82L22.83,20.41L20.41,18L22.83,15.58L21.41,14.16L19,16.58" /></svg>
